Origami/48x48/apps/rdm.svg

<svg width="48" height="48" version="1.1" viewBox="0 0 48 48" xmlns="http://www.w3.org/2000/svg">
 <path d="m24.000923 21c-1.32659-2.41e-4 -2.653246 0.295376-3.634948 0.884395l-14.894334 8.935084c-1.963406 1.178036-1.961583 3.183874 0.0018 4.361912l14.892505 8.935083c1.963405 1.178035 5.306495 1.178034 7.269897 0l14.89254-8.935083c1.963401-1.178034 1.961553-3.18388-0.0019-4.361912l-14.890613-8.935084c-0.981702-0.589019-2.308357-0.884154-3.634947-0.884395z" style="opacity:.2"/>
 <path d="m24.000923 20c-1.32659-2.41e-4 -2.653246 0.295376-3.634948 0.884395l-14.894334 8.935084c-1.963406 1.178036-1.961583 3.183874 0.0018 4.361912l14.892505 8.935083c1.963405 1.178035 5.306495 1.178034 7.269897 0l14.89254-8.935083c1.963401-1.178034 1.961553-3.18388-0.0019-4.361912l-14.890613-8.935084c-0.981702-0.589019-2.308357-0.884154-3.634947-0.884395z" style="fill:#af2d2c"/>
 <path d="m24.000924 13c-1.32659-2.41e-4 -2.653246 0.295376-3.634948 0.884395l-14.894334 8.935084c-1.963406 1.178036-1.961583 3.183874 0.0018 4.361912l14.892505 8.935083c1.963405 1.178035 5.306495 1.178034 7.269897 0l14.89254-8.935083c1.963401-1.178034 1.961553-3.18388-0.0019-4.361912l-14.890613-8.935084c-0.981702-0.589019-2.308357-0.884154-3.634947-0.884395z" style="opacity:.2"/>
 <path d="m24.000924 12c-1.32659-2.41e-4 -2.653246 0.295376-3.634948 0.884395l-14.894334 8.935084c-1.963406 1.178036-1.961583 3.183874 0.0018 4.361912l14.892505 8.935083c1.963405 1.178035 5.306495 1.178034 7.269897 0l14.89254-8.935083c1.963401-1.178034 1.961553-3.18388-0.0019-4.361912l-14.890613-8.935084c-0.981702-0.589019-2.308357-0.884154-3.634947-0.884395z" style="fill:#da3837"/>
 <path d="m24.000923 5.0000002c-1.32659-2.41e-4 -2.653246 0.295376-3.634948 0.884395l-14.894334 8.9350838c-1.963406 1.178036-1.961583 3.183874 0.0018 4.361912l14.892505 8.935083c1.963405 1.178035 5.306495 1.178034 7.269897 0l14.89254-8.935083c1.963401-1.178034 1.961553-3.18388-0.0019-4.361912l-14.890613-8.9350838c-0.981702-0.589019-2.308357-0.884154-3.634947-0.884395z" style="opacity:.2"/>
 <path d="m24.000923 4.0000001c-1.32659-2.41e-4 -2.653246 0.295376-3.634948 0.884395l-14.894334 8.9350839c-1.963406 1.178036-1.961583 3.183874 0.0018 4.361912l14.892505 8.935083c1.963405 1.178035 5.306495 1.178034 7.269897 0l14.89254-8.935083c1.963401-1.178034 1.961553-3.18388-0.0019-4.361912l-14.890613-8.9350839c-0.981702-0.589019-2.308357-0.884154-3.634947-0.884395z" style="fill:#e0504d"/>
 <path d="m24 4c-1.32659-2.41e-4 -2.653064 0.2957466-3.634766 0.8847656l-14.894531 8.9355464c-1.1884286 0.713053-1.6433579 1.727214-1.3925781 2.679688 0.1628512-0.62111 0.6176008-1.214704 1.3925781-1.679688l14.894531-8.9355464c0.981702-0.589019 2.308176-0.8850066 3.634766-0.8847656s2.655017 0.2957466 3.636719 0.8847656l14.890625 8.9355464c0.774996 0.464982 1.230982 1.058577 1.394531 1.679688 0.249718-0.952475-0.206074-1.966637-1.394531-2.679688l-14.890625-8.9355464c-0.981702-0.589019-2.310129-0.8845246-3.636719-0.8847656z" style="fill:#ffffff;opacity:.2"/>
 <polygon transform="matrix(.02952012 0 0 .04335832 2.1014139 -.31001221)" points="647 191.66 746.72 230.66 840.74 199.88 815.33 260.85 911.2 296.75 787.57 309.58 759.89 376.17 715.19 301.86 572.44 289.03 678.96 250.62" style="opacity:.2"/>
 <polygon transform="matrix(.02952012 0 0 .04335832 2.1014139 -1.3100125)" points="678.96 250.62 647 191.66 746.72 230.66 840.74 199.88 815.33 260.85 911.2 296.75 787.57 309.58 759.89 376.17 715.19 301.86 572.44 289.03" style="fill:#ffffff"/>
 <polygon transform="matrix(.02722224 0 0 .04097437 3.7958163 .60375768)" points="752.51 619.81 521.79 524.11 852.4 473.38" style="opacity:.2"/>
 <polygon transform="matrix(.02722224 0 0 .04097437 3.7958163 -.39624261)" points="852.4 473.38 752.51 619.81 521.79 524.11" style="fill:#ffffff"/>
 <ellipse cx="15" cy="17" rx="5" ry="3" style="opacity:.2"/>
 <ellipse cx="15" cy="16" rx="5" ry="3" style="fill:#ffffff"/>
 <g transform="matrix(1.036795 0 0 1.0222961 -.39821116 -.45484271)">
  <path transform="matrix(.02808355 0 0 .04204144 2.8125203 -1.0576208)" d="m1046.891 477.818-206.066-77.243 206.066-85.628z" style="opacity:.25"/>
  <path transform="matrix(.02808355 0 0 .04204144 2.8125203 -1.0576208)" d="m1252.957 392.274-206.066 85.544v-162.871z" style="opacity:.4"/>
 </g>
</svg>

<svg xmlns="http://www.w3.org/2000/svg" width="48" height="48" version="1.1" viewBox="0 0 48 48">
 <path style="opacity:0.2" d="m 24.000923,21 c -1.32659,-2.41e-4 -2.653246,0.295376 -3.634948,0.884395 L 5.4716414,30.819479 c -1.963406,1.178036 -1.961583,3.183874 0.0018,4.361912 l 14.8925046,8.935083 c 1.963405,1.178035 5.306495,1.178034 7.269897,0 l 14.89254,-8.935083 c 1.963401,-1.178034 1.961553,-3.18388 -0.0019,-4.361912 L 27.63587,21.884395 C 26.654168,21.295376 25.327513,21.000241 24.000923,21 Z"/>
 <path style="fill:#af2d2c" d="m 24.000923,20 c -1.32659,-2.41e-4 -2.653246,0.295376 -3.634948,0.884395 L 5.4716414,29.819479 c -1.963406,1.178036 -1.961583,3.183874 0.0018,4.361912 l 14.8925046,8.935083 c 1.963405,1.178035 5.306495,1.178034 7.269897,0 l 14.89254,-8.935083 c 1.963401,-1.178034 1.961553,-3.18388 -0.0019,-4.361912 L 27.63587,20.884395 C 26.654168,20.295376 25.327513,20.000241 24.000923,20 Z"/>
 <path style="opacity:0.2" d="m 24.000924,13 c -1.32659,-2.41e-4 -2.653246,0.295376 -3.634948,0.884395 L 5.4716418,22.819479 c -1.963406,1.178036 -1.961583,3.183874 0.0018,4.361912 l 14.8925052,8.935083 c 1.963405,1.178035 5.306495,1.178034 7.269897,0 l 14.89254,-8.935083 c 1.963401,-1.178034 1.961553,-3.18388 -0.0019,-4.361912 L 27.635871,13.884395 C 26.654169,13.295376 25.327514,13.000241 24.000924,13 Z"/>
 <path style="fill:#da3837" d="m 24.000924,12 c -1.32659,-2.41e-4 -2.653246,0.295376 -3.634948,0.884395 L 5.4716418,21.819479 c -1.963406,1.178036 -1.961583,3.183874 0.0018,4.361912 l 14.8925052,8.935083 c 1.963405,1.178035 5.306495,1.178034 7.269897,0 l 14.89254,-8.935083 c 1.963401,-1.178034 1.961553,-3.18388 -0.0019,-4.361912 L 27.635871,12.884395 C 26.654169,12.295376 25.327514,12.000241 24.000924,12 Z"/>
 <path style="opacity:0.2" d="m 24.000923,5.0000002 c -1.32659,-2.41e-4 -2.653246,0.295376 -3.634948,0.884395 L 5.4716414,14.819479 c -1.963406,1.178036 -1.961583,3.183874 0.0018,4.361912 l 14.8925046,8.935083 c 1.963405,1.178035 5.306495,1.178034 7.269897,0 l 14.89254,-8.935083 c 1.963401,-1.178034 1.961553,-3.18388 -0.0019,-4.361912 L 27.63587,5.8843952 c -0.981702,-0.589019 -2.308357,-0.884154 -3.634947,-0.884395 z"/>
 <path style="fill:#e0504d" d="m 24.000923,4.0000001 c -1.32659,-2.41e-4 -2.653246,0.295376 -3.634948,0.884395 L 5.4716414,13.819479 c -1.963406,1.178036 -1.961583,3.183874 0.0018,4.361912 l 14.8925046,8.935083 c 1.963405,1.178035 5.306495,1.178034 7.269897,0 l 14.89254,-8.935083 c 1.963401,-1.178034 1.961553,-3.18388 -0.0019,-4.361912 L 27.63587,4.8843951 c -0.981702,-0.589019 -2.308357,-0.884154 -3.634947,-0.884395 z"/>
 <path style="opacity:0.2;fill:#ffffff" d="M 24 4 C 22.67341 3.999759 21.346936 4.2957466 20.365234 4.8847656 L 5.4707031 13.820312 C 4.2822745 14.533365 3.8273452 15.547526 4.078125 16.5 C 4.2409762 15.87889 4.6957258 15.285296 5.4707031 14.820312 L 20.365234 5.8847656 C 21.346936 5.2957466 22.67341 4.999759 24 5 C 25.32659 5.000241 26.655017 5.2957466 27.636719 5.8847656 L 42.527344 14.820312 C 43.30234 15.285294 43.758326 15.878889 43.921875 16.5 C 44.171593 15.547525 43.715801 14.533363 42.527344 13.820312 L 27.636719 4.8847656 C 26.655017 4.2957466 25.32659 4.000241 24 4 z"/>
 <polygon style="opacity:0.2" points="647 191.66 746.72 230.66 840.74 199.88 815.33 260.85 911.2 296.75 787.57 309.58 759.89 376.17 715.19 301.86 572.44 289.03 678.96 250.62" transform="matrix(0.02952012,0,0,0.04335832,2.1014139,-0.31001221)"/>
 <polygon style="fill:#ffffff" points="678.96 250.62 647 191.66 746.72 230.66 840.74 199.88 815.33 260.85 911.2 296.75 787.57 309.58 759.89 376.17 715.19 301.86 572.44 289.03" transform="matrix(0.02952012,0,0,0.04335832,2.1014139,-1.3100125)"/>
 <polygon style="opacity:0.2" points="752.51 619.81 521.79 524.11 852.4 473.38" transform="matrix(0.02722224,0,0,0.04097437,3.7958163,0.60375768)"/>
 <polygon style="fill:#ffffff" points="852.4 473.38 752.51 619.81 521.79 524.11" transform="matrix(0.02722224,0,0,0.04097437,3.7958163,-0.39624261)"/>
 <ellipse style="opacity:0.2" cx="15" cy="17" rx="5" ry="3"/>
 <ellipse style="fill:#ffffff" cx="15" cy="16" rx="5" ry="3"/>
 <g transform="matrix(1.036795,0,0,1.0222961,-0.39821116,-0.45484271)">
  <path style="opacity:0.25" d="M 1046.891,477.818 840.825,400.575 1046.891,314.947 Z" transform="matrix(0.02808355,0,0,0.04204144,2.8125203,-1.0576208)"/>
  <path style="opacity:0.4" d="m 1252.957,392.274 -206.066,85.544 0,-162.871 z" transform="matrix(0.02808355,0,0,0.04204144,2.8125203,-1.0576208)"/>
 </g>
</svg>
